X: 7110
T: Christmas Eve
R: reel
M: 4/4
K: Gmajor
|:D3E G3A|B2dB ABGB|ABGE DBDE|G2BG ABGE|
DBDE G3A|B2dB ABGA|BA A2 GEBG|ABGE G3E:|
|:BABd edeg|abge g2eg|a3f g3e|dedB A2GA|
BABd edeg|abge g2eg|a2ge d2BG|ABGE G3A:|
|:BG G2 BGBd|egg2 egdc|BG G2 B2 AG|EA A2 EA A2|
BG G2 DGBd|egg2 egga|bgaf gedB|ABGE G3E:|

